X:1
T:Title
%%score { ( 1 4 ) | ( 2 3 ) }
L:1/8
M:3/4
K:Eb
V:1 treble nm="Grand Piano"
V:4 treble 
V:2 bass 
V:3 bass 
V:1
 z2 z2[Q:1/4=100] G2 | [B,G]3 G _G=G | A2 G2 G2 | [B,G]3 F CD | [G,E]4 B2 | B3 B =AB | c2 B2 G2 | %7
 [DF]3 B B=A | [DB]4 B2 | [CA]3 G =EF | G2 F2 B2 | A3 G F_G | G4 B2 | B3 G FG | [_DB]2 A2 A2 | %15
 [B,G]3 A GF |[M:2/4] [G,E]4 |[M:1/4] B2 |[M:3/4] e4 z2 | [B,EG]2 [B,DF]2 A2 | d4 z2 |[M:2/4] G4 | %22
[M:1/4] B2 |[M:3/4] e4 z2 | [EBd]2 [EAc]2 [E_Gc]2 | %25
 [GB]4 z2[Q:1/4=99][Q:1/4=97][Q:1/4=96][Q:1/4=94][Q:1/4=93][Q:1/4=91][Q:1/4=90][Q:1/4=88][Q:1/4=87][Q:1/4=85][Q:1/4=84][Q:1/4=82][Q:1/4=81][Q:1/4=79][Q:1/4=78][Q:1/4=76] | %26
 E6- |[M:2/4] E4 |] %28
V:2
 z2 z2 B,2 | z2 z B, =A,B, | C2 B,2 B,2 | z2 z A, A,A, | E,,4 G,2 | G,3 G, _G,=G, | A,2 G,2 E2 | %7
 z2 z D EE | B,,4 D2 | z2 z B, G,A, | B,2 A,2 D2 | C3 B, A,=A, | [E,B,]4 G,2 | G,3 B, _DD | %14
 z2 C2 =B,2 | z2 z C B,A, |[M:2/4] E,,4 |[M:1/4][K:treble] G2 |[M:3/4] G4[K:bass] z2 | %19
 B,,2 B,,2[K:treble] F2 | B4 z2 |[M:2/4][K:bass] .E2 z2 |[M:1/4][K:treble] G2 | %23
[M:3/4] G4[K:bass] z2 | A,2 A,2 =A,2 | B,B, B,B,, B,,B,, | z G, G,G, B,A, |[M:2/4] G,4 |] %28
V:3
 x6 | E,,6- | E,,6 | B,,,6 | x6 | E,6- | E,6 | F,6 | x6 | B,,6- | B,,6- | B,,6 | x6 | E,6 | A,,6 | %15
 B,,6 |[M:2/4] x4 |[M:1/4][K:treble] x2 |[M:3/4] z[K:bass] E, E,E, E,E, | x4[K:treble] x2 | %20
 z B, B,[B,DA] [B,DG][B,DF] |[M:2/4][K:bass] E,4 |[M:1/4][K:treble] x2 | %23
[M:3/4] z[K:bass] E, E,E, E,E, | x6 | x6 | E,6- |[M:2/4] E,4 |] %28
V:4
 x6 | x6 | x6 | x6 | x6 | x6 | x6 | x6 | x6 | x6 | x6 | x6 | x6 | x6 | x6 | x6 |[M:2/4] x4 | %17
[M:1/4] x2 |[M:3/4] z B, B,[B,GB] [CEA][B,EG] | x6 | z D Dc BA |[M:2/4] z C B,2 |[M:1/4] x2 | %23
[M:3/4] z B, B,[EGB] [E_G=A][E=GB] | x6 | EE E[CDA] [B,DG][A,DF] | [G,B,]B, B,B, DC |[M:2/4] B,4 |] %28

